X:1
T:Title
%%score 1 2 3 4
L:1/8
M:2/2
K:D
V:1 treble nm="Choir Aahs"
V:2 bass nm="Choir Aahs"
V:3 treble nm="Choir Aahs"
V:4 bass nm="Choir Aahs"
V:1
 d4 | AGFG A2 d2 | e2 fd c3 c | d2 AB c2 A2 | A4 z2 B2 | B2 A2 A3 G | F2 d2 c3 A | dc B2 B2 ^A2 | %8
 B4 z2 d2 | c3 B A3 G | F2 dc d3 e | f2 e2 d2 d2 | c4 z4 | z8 | e2 e2 c3 d | A2 F2 f2 ge | d8 | %17
[K:D][M:1/2] d4 |[M:2/2] AGFG A2 d2 | e2 fd c3 c | d2 AB c2 A2 | A4 z2 B2 | B2 A2 A3 G | %23
 F2 d2 c3 A | dc B2 B2 ^A2 | B4 z2 d2 | c3 B A3 G | F2 dc d3 e | f2 e2 d2 d2 | c4 z4 | z8 | %31
 e2 e2 c3 d | A2 F2 f2 ge | d8 |] %34
V:2
 D,4 | F,2 D,2 A,2 G,2 | G,2 F,2 A,3 A, | A,2 E,F, G,2 F,E, | F,4 z2 G,2 | G,>F, E,2 F,3 E, | %6
 D,2 A,2 A,3 A, | G,2 G,2 G,2 F,2 | F,4 z2 B,2 | A,3 G, F,3 E, | D,2 A,2 D,3 A, | A,2 A,2 A,2 A,2 | %12
 A,4 z4 | z8 | A,2 A,2 A,3 B, | A,2 A,2 A,2 F,2 | F,8 |[K:D][M:1/2] D,4 |[M:2/2] F,2 D,2 A,2 G,2 | %19
 G,2 F,2 A,3 A, | A,2 E,F, G,2 F,E, | F,4 z2 G,2 | G,>F, E,2 F,3 E, | D,2 A,2 A,3 A, | %24
 G,2 G,2 G,2 F,2 | F,4 z2 B,2 | A,3 G, F,3 E, | D,2 A,2 D,3 A, | A,2 A,2 A,2 A,2 | A,4 z4 | z8 | %31
 A,2 A,2 A,3 B, | A,2 A,2 A,2 F,2 | F,8 |] %34
V:3
 A,4 | DEFE DC[K:bass]B,A, | B,C D2[K:treble] E3 E | F2 ED E2 DC | D4 z2 B,2 | B,2 C2 D2 C>B, | %6
 A,2 A,2 E3 F | DA,B,C D2 C2 | D>C B,2 z4 | z8 | z4 z2 z C | D2 C2 D2 F2 | E4 z2 B,D | %13
 C[K:bass]B,A,D CB, A,2 | F2 F2 E3 B, | CA, D2 D2 C2 | D8 |[K:D][M:1/2] A,4 | %18
[M:2/2] DEFE DC[K:bass]B,A, | B,C D2[K:treble] E3 E | F2 ED E2 DC | D4 z2 B,2 | B,2 C2 D2 C>B, | %23
 A,2 A,2 E3 F | DA,B,C D2 C2 | D>C B,2 z4 | z8 | z4 z2 z C | D2 C2 D2 F2 | E4 z2 B,D | %30
 C[K:bass]B,A,D CB, A,2 | F2 F2 E3 B, | CA, D2 D2 C2 | D8 |] %34
V:4
 D,4 | D,2 D,E, F,2 G,F, | E,2 D,2 A,3 A, | D2 CA, A,2 A,,2 | D,4 z2 G,>F, | E,2 A,2 D,3 A,, | %6
 D,E,F,G, A,3 F, | B,A,G,F, E,2 F,2 | B,,4 z4 | z8 | z4 z2 z A, | B,2 A,2 G,2 D,2 | A,4 z2 E,A, | %13
 A,G,F,B, A,G, F,2 | C2 D2 A,3 G, | F,2 D,2 A,2 A,,2 | D,8 |[K:D][M:1/2] D,4 | %18
[M:2/2] D,2 D,E, F,2 G,F, | E,2 D,2 A,3 A, | D2 CA, A,2 A,,2 | D,4 z2 G,>F, | E,2 A,2 D,3 A,, | %23
 D,E,F,G, A,3 F, | B,A,G,F, E,2 F,2 | B,,4 z4 | z8 | z4 z2 z A, | B,2 A,2 G,2 D,2 | A,4 z2 E,A, | %30
 A,G,F,B, A,G, F,2 | C2 D2 A,3 G, | F,2 D,2 A,2 A,,2 | D,8 |] %34

